X: 2216
T: Autumn Leaves
R: reel
M: 4/4
K: Edorian
E2 BA FGAF|E2 BA FEDF|E2 BA FGAB|defe dBAF|
E2 BA FGAF|E2 BA FEDF|E2 BA FGAB|defe dBAd||
Beec defd|Beec dBAA|Beec defe|dBAF FE E2|
Beec defd|Beec d3e|f2 fe dfec|dBAF FE E2||

